usr/share/icons/biglinux-icons-material/scalable/apps/calc.svg

<?xml version="1.0" encoding="UTF-8" standalone="no"?>
<svg
   width="24"
   height="24"
   viewBox="0 0 24 24"
   fill="none"
   version="1.1"
   id="svg29"
   sodipodi:docname="google-calculator.svg"
   inkscape:version="1.3 (0e150ed6c4, 2023-07-21)"
   xmlns:inkscape="http://www.inkscape.org/namespaces/inkscape"
   xmlns:sodipodi="http://sodipodi.sourceforge.net/DTD/sodipodi-0.dtd"
   xmlns="http://www.w3.org/2000/svg"
   xmlns:svg="http://www.w3.org/2000/svg">
  <sodipodi:namedview
     id="namedview29"
     pagecolor="#ffffff"
     bordercolor="#000000"
     borderopacity="0.25"
     inkscape:showpageshadow="2"
     inkscape:pageopacity="0.0"
     inkscape:pagecheckerboard="0"
     inkscape:deskcolor="#d1d1d1"
     inkscape:zoom="33.791667"
     inkscape:cx="11.985203"
     inkscape:cy="12"
     inkscape:window-width="2560"
     inkscape:window-height="998"
     inkscape:window-x="0"
     inkscape:window-y="0"
     inkscape:window-maximized="1"
     inkscape:current-layer="svg29" />
  <path
     fill-rule="evenodd"
     clip-rule="evenodd"
     d="M9.59604 1.11359C9.71588 1.11486 9.83043 1.0996 9.93969 1.06779C11.3755 0.973736 12.8112 0.977551 14.2467 1.07924C15.5484 1.18066 16.8085 1.46308 18.0269 1.9265C20.0525 2.76044 21.4385 4.20689 22.185 6.26586C22.6119 7.50549 22.864 8.78021 22.9411 10.09C23.0478 11.7347 23.0096 13.3758 22.8265 15.0133C22.6894 16.1641 22.3916 17.2709 21.933 18.3336C21.0824 20.1761 19.704 21.447 17.7978 22.1463C16.2531 22.6683 14.6647 22.943 13.0325 22.9707C11.1966 23.0661 9.37913 22.9287 7.57997 22.5584C4.26839 21.8208 2.22558 19.8018 1.45158 16.5017C1.12311 15.0161 0.974199 13.5124 1.00483 11.9906C0.968176 10.3724 1.14 8.77709 1.52031 7.20472C2.33171 4.11908 4.2905 2.20701 7.39669 1.46852C8.12048 1.29157 8.85359 1.17326 9.59604 1.11359Z"
     fill="url(#paint0_linear_8_122)"
     id="path1" />
  <g
     id="g29"
     transform="matrix(1.0074534,0,0,1,-0.72371025,0.03817003)"
     style="stroke-width:0.996294;fill:#1a1a1a;opacity:0.15;fill-opacity:1">
    <g
       opacity="0.700117"
       filter="url(#filter0_f_8_122)"
       id="g2"
       style="stroke-width:0.996294;fill:#1a1a1a;fill-opacity:1">
      <path
         d="M 11.4969,10.3092 V 6.76829 c 0,-1.09971 -0.4605,-1.54428 -1.60473,-1.54428 H 6.98486 c -1.14423,0 -1.60479,0.44457 -1.60479,1.54428 v 3.53321 c 0,1.1075 0.46056,1.5442 1.60479,1.5442 h 2.90731 c 1.14423,0.0078 1.60473,-0.4367 1.60473,-1.5365 z"
         fill="#000000"
         fill-opacity="0.43219"
         id="path2"
         style="stroke-width:0.996294;fill:#1a1a1a;fill-opacity:1" />
    </g>
    <g
       opacity="0.700117"
       filter="url(#filter1_f_8_122)"
       id="g3"
       style="stroke-width:0.996294;fill:#1a1a1a;fill-opacity:1">
      <path
         d="m 11.4969,18.1634 v -3.5409 c 0,-1.0997 -0.4605,-1.5443 -1.60473,-1.5443 H 6.98486 c -1.14423,0 -1.60479,0.4446 -1.60479,1.5443 v 3.5331 c 0,1.1075 0.46056,1.5443 1.60479,1.5443 h 2.90731 c 1.14423,0.0078 1.60473,-0.4368 1.60473,-1.5365 z"
         fill="#000000"
         fill-opacity="0.43219"
         id="path3"
         style="stroke-width:0.996294;fill:#1a1a1a;fill-opacity:1" />
    </g>
    <g
       opacity="0.700117"
       filter="url(#filter2_f_8_122)"
       id="g4"
       style="stroke-width:0.996294;fill:#1a1a1a;fill-opacity:1">
      <path
         d="M 18.8855,10.3092 V 6.76829 c 0,-1.09971 -0.4605,-1.54428 -1.6048,-1.54428 h -2.9073 c -1.1442,0 -1.6048,0.44457 -1.6048,1.54428 v 3.53321 c 0,1.1075 0.4606,1.5442 1.6048,1.5442 h 2.9073 c 1.1443,0.0078 1.6048,-0.4367 1.6048,-1.5365 z"
         fill="#000000"
         fill-opacity="0.43219"
         id="path4"
         style="stroke-width:0.996294;fill:#1a1a1a;fill-opacity:1" />
    </g>
    <g
       opacity="0.700117"
       filter="url(#filter3_f_8_122)"
       id="g5"
       style="stroke-width:0.996294;fill:#1a1a1a;fill-opacity:1">
      <path
         d="m 18.8855,18.1634 v -3.5409 c 0,-1.0997 -0.4605,-1.5443 -1.6048,-1.5443 h -2.9073 c -1.1442,0 -1.6048,0.4446 -1.6048,1.5443 v 3.5331 c 0,1.1075 0.4606,1.5443 1.6048,1.5443 h 2.9073 c 1.1443,0.0078 1.6048,-0.4368 1.6048,-1.5365 z"
         fill="#000000"
         fill-opacity="0.43219"
         id="path5"
         style="stroke-width:0.996294;fill:#1a1a1a;fill-opacity:1" />
    </g>
  </g>
  <path
     d="M11.3519 9.93522V6.39429C11.3519 5.29457 10.8914 4.85 9.74709 4.85H6.83978C5.69555 4.85 5.23499 5.29457 5.23499 6.39429V9.92746C5.23499 11.035 5.69555 11.4717 6.83978 11.4717H9.74709C10.8914 11.4795 11.3519 11.035 11.3519 9.93522Z"
     fill="url(#paint1_linear_8_122)"
     id="path6" />
  <path
     d="M9.73274 8.35592H6.85416C6.7558 8.35592 6.67426 8.26747 6.67426 8.16087C6.67426 8.05431 6.7558 7.96592 6.85416 7.96592H9.73274C9.83105 7.96592 9.91264 8.05431 9.91264 8.16087C9.91264 8.26747 9.83105 8.35592 9.73274 8.35592Z"
     fill="white"
     id="path7" />
  <path
     d="M8.29347 9.91581C8.19507 9.91581 8.11353 9.82735 8.11353 9.72076V6.60102C8.11353 6.49443 8.19507 6.40603 8.29347 6.40603C8.39178 6.40603 8.47336 6.49443 8.47336 6.60102V9.72076C8.47336 9.82735 8.39178 9.91581 8.29347 9.91581Z"
     fill="white"
     id="path8" />
  <path
     d="M11.3519 17.7894V14.2484C11.3519 13.1488 10.8914 12.7042 9.74709 12.7042H6.83978C5.69555 12.7042 5.23499 13.1488 5.23499 14.2484V17.7816C5.23499 18.8891 5.69555 19.3259 6.83978 19.3259H9.74709C10.8914 19.3337 11.3519 18.8891 11.3519 17.7894Z"
     fill="url(#paint2_linear_8_122)"
     id="path9" />
  <path
     d="M9.73274 16.2101H6.85416C6.7558 16.2101 6.67426 16.1216 6.67426 16.015C6.67426 15.9085 6.7558 15.8201 6.85416 15.8201H9.73274C9.83105 15.8201 9.91264 15.9085 9.91264 16.015C9.91264 16.1216 9.83105 16.2101 9.73274 16.2101Z"
     fill="white"
     id="path10" />
  <path
     d="M18.7405 9.93523V6.39429C18.7405 5.29457 18.28 4.85 17.1357 4.85H14.2284C13.0841 4.85 12.6236 5.29457 12.6236 6.39429V9.92746C12.6236 11.035 13.0841 11.4717 14.2284 11.4717H17.1357C18.28 11.4795 18.7405 11.035 18.7405 9.93523Z"
     fill="url(#paint3_linear_8_122)"
     id="path11" />
  <path
     d="M16.9392 7.1198L14.6904 9.54519C14.6136 9.62805 14.4858 9.62767 14.4086 9.54434C14.3315 9.46109 14.3311 9.32333 14.4079 9.24047L16.6567 6.81509C16.7335 6.73226 16.8613 6.73257 16.9385 6.81581C17.0156 6.89908 17.016 7.03697 16.9392 7.1198Z"
     fill="white"
     id="path12" />
  <path
     d="M14.7009 7.61853C14.9444 7.61853 15.142 7.40555 15.142 7.14281C15.142 6.88008 14.9444 6.66709 14.7009 6.66709C14.4572 6.66709 14.2598 6.88008 14.2598 7.14281C14.2598 7.40555 14.4572 7.61853 14.7009 7.61853Z"
     stroke="white"
     stroke-width="0.277121"
     stroke-linecap="round"
     stroke-linejoin="round"
     id="path13" />
  <path
     d="M16.6632 9.65474C16.9068 9.65474 17.1043 9.44177 17.1043 9.17903C17.1043 8.9163 16.9068 8.70331 16.6632 8.70331C16.4196 8.70331 16.2222 8.9163 16.2222 9.17903C16.2222 9.44177 16.4196 9.65474 16.6632 9.65474Z"
     stroke="white"
     stroke-width="0.277121"
     stroke-linecap="round"
     stroke-linejoin="round"
     id="path14" />
  <path
     d="M18.7404 17.7894V14.2484C18.7404 13.1488 18.28 12.7042 17.1357 12.7042H14.2284C13.0841 12.7042 12.6236 13.1488 12.6236 14.2484V17.7816C12.6236 18.8891 13.0841 19.3259 14.2284 19.3259H17.1357C18.28 19.3337 18.7404 18.8891 18.7404 17.7894Z"
     fill="url(#paint4_linear_8_122)"
     id="path15" />
  <path
     d="M17.1213 16.7711H14.2427C14.1444 16.7711 14.0629 16.6826 14.0629 16.576C14.0629 16.4695 14.1444 16.3811 14.2427 16.3811H17.1213C17.2197 16.3811 17.3013 16.4695 17.3013 16.576C17.3013 16.6826 17.2197 16.7711 17.1213 16.7711Z"
     fill="white"
     id="path16" />
  <path
     d="M17.1213 15.6491H14.2427C14.1444 15.6491 14.0629 15.5606 14.0629 15.454C14.0629 15.3475 14.1444 15.259 14.2427 15.259H17.1213C17.2197 15.259 17.3013 15.3475 17.3013 15.454C17.3013 15.5606 17.2197 15.6491 17.1213 15.6491Z"
     fill="white"
     id="path17" />
  <defs
     id="defs29">
    <filter
       id="filter0_f_8_122"
       x="5.34388"
       y="5.18783"
       width="6.18922"
       height="6.69418"
       filterUnits="userSpaceOnUse"
       color-interpolation-filters="sRGB">
      <feFlood
         flood-opacity="0"
         result="BackgroundImageFix"
         id="feFlood17" />
      <feBlend
         mode="normal"
         in="SourceGraphic"
         in2="BackgroundImageFix"
         result="shape"
         id="feBlend17" />
      <feGaussianBlur
         stdDeviation="0.0180912"
         result="effect1_foregroundBlur_8_122"
         id="feGaussianBlur17" />
    </filter>
    <filter
       id="filter1_f_8_122"
       x="5.34388"
       y="13.042"
       width="6.18922"
       height="6.69419"
       filterUnits="userSpaceOnUse"
       color-interpolation-filters="sRGB">
      <feFlood
         flood-opacity="0"
         result="BackgroundImageFix"
         id="feFlood18" />
      <feBlend
         mode="normal"
         in="SourceGraphic"
         in2="BackgroundImageFix"
         result="shape"
         id="feBlend18" />
      <feGaussianBlur
         stdDeviation="0.0180912"
         result="effect1_foregroundBlur_8_122"
         id="feGaussianBlur18" />
    </filter>
    <filter
       id="filter2_f_8_122"
       x="12.7324"
       y="5.18783"
       width="6.18928"
       height="6.69418"
       filterUnits="userSpaceOnUse"
       color-interpolation-filters="sRGB">
      <feFlood
         flood-opacity="0"
         result="BackgroundImageFix"
         id="feFlood19" />
      <feBlend
         mode="normal"
         in="SourceGraphic"
         in2="BackgroundImageFix"
         result="shape"
         id="feBlend19" />
      <feGaussianBlur
         stdDeviation="0.0180912"
         result="effect1_foregroundBlur_8_122"
         id="feGaussianBlur19" />
    </filter>
    <filter
       id="filter3_f_8_122"
       x="12.7324"
       y="13.042"
       width="6.18928"
       height="6.69419"
       filterUnits="userSpaceOnUse"
       color-interpolation-filters="sRGB">
      <feFlood
         flood-opacity="0"
         result="BackgroundImageFix"
         id="feFlood20" />
      <feBlend
         mode="normal"
         in="SourceGraphic"
         in2="BackgroundImageFix"
         result="shape"
         id="feBlend20" />
      <feGaussianBlur
         stdDeviation="0.0180912"
         result="effect1_foregroundBlur_8_122"
         id="feGaussianBlur20" />
    </filter>
    <linearGradient
       id="paint0_linear_8_122"
       x1="12"
       y1="1"
       x2="12"
       y2="12"
       gradientUnits="userSpaceOnUse">
      <stop
         stop-color="white"
         id="stop20" />
      <stop
         offset="1"
         stop-color="#DBDBDA"
         id="stop21" />
    </linearGradient>
    <linearGradient
       id="paint1_linear_8_122"
       x1="8.41985"
       y1="4.98273"
       x2="8.41985"
       y2="11.2031"
       gradientUnits="userSpaceOnUse">
      <stop
         stop-color="#959491"
         id="stop22" />
      <stop
         offset="1"
         stop-color="#7F7D78"
         id="stop23" />
    </linearGradient>
    <linearGradient
       id="paint2_linear_8_122"
       x1="8.41985"
       y1="12.8369"
       x2="8.41985"
       y2="19.0571"
       gradientUnits="userSpaceOnUse">
      <stop
         stop-color="#959491"
         id="stop24" />
      <stop
         offset="1"
         stop-color="#7F7D78"
         id="stop25" />
    </linearGradient>
    <linearGradient
       id="paint3_linear_8_122"
       x1="15.8085"
       y1="4.98273"
       x2="15.8085"
       y2="11.2031"
       gradientUnits="userSpaceOnUse">
      <stop
         stop-color="#959491"
         id="stop26" />
      <stop
         offset="1"
         stop-color="#7F7D78"
         id="stop27" />
    </linearGradient>
    <linearGradient
       id="paint4_linear_8_122"
       x1="15.8085"
       y1="12.8369"
       x2="15.8085"
       y2="19.0571"
       gradientUnits="userSpaceOnUse">
      <stop
         stop-color="#F77400"
         id="stop28" />
      <stop
         offset="1"
         stop-color="#C05A00"
         id="stop29" />
    </linearGradient>
  </defs>
</svg>

<svg xmlns="http://www.w3.org/2000/svg" width="24" height="24" fill="none"><path fill="url(#a)" fill-rule="evenodd" d="M9.596 1.114c.12 0 .234-.014.344-.046a31.627 31.627 0 0 1 4.307.011c1.301.102 2.561.384 3.78.848 2.025.833 3.412 2.28 4.158 4.339.427 1.24.679 2.514.756 3.824a27.94 27.94 0 0 1-.114 4.923 11.885 11.885 0 0 1-.894 3.32c-.85 1.843-2.229 3.114-4.135 3.813a15.624 15.624 0 0 1-4.765.825 21.423 21.423 0 0 1-5.453-.413c-3.312-.737-5.354-2.756-6.128-6.056a19.047 19.047 0 0 1-.447-4.511 18.49 18.49 0 0 1 .515-4.786c.812-3.086 2.77-4.998 5.877-5.736a13.953 13.953 0 0 1 2.199-.355Z" clip-rule="evenodd"/><g style="stroke-width:.996294;fill:#1a1a1a;opacity:.15;fill-opacity:1"><g filter="url(#b)" opacity=".7" style="stroke-width:.996294;fill:#1a1a1a;fill-opacity:1" transform="matrix(1.00745 0 0 1 -.724 .038)"><path fill="#000" fill-opacity=".432" d="M11.497 10.31V6.767c0-1.1-.46-1.544-1.605-1.544H6.985c-1.144 0-1.605.445-1.605 1.544v3.534c0 1.107.46 1.544 1.605 1.544h2.907c1.144.008 1.605-.437 1.605-1.537z" style="stroke-width:.996294;fill:#1a1a1a;fill-opacity:1"/></g><g filter="url(#c)" opacity=".7" style="stroke-width:.996294;fill:#1a1a1a;fill-opacity:1" transform="matrix(1.00745 0 0 1 -.724 .038)"><path fill="#000" fill-opacity=".432" d="M11.497 18.163v-3.54c0-1.1-.46-1.545-1.605-1.545H6.985c-1.144 0-1.605.445-1.605 1.544v3.534c0 1.107.46 1.544 1.605 1.544h2.907c1.144.008 1.605-.437 1.605-1.537z" style="stroke-width:.996294;fill:#1a1a1a;fill-opacity:1"/></g><g filter="url(#d)" opacity=".7" style="stroke-width:.996294;fill:#1a1a1a;fill-opacity:1" transform="matrix(1.00745 0 0 1 -.724 .038)"><path fill="#000" fill-opacity=".432" d="M18.886 10.31V6.767c0-1.1-.461-1.544-1.605-1.544h-2.908c-1.144 0-1.604.445-1.604 1.544v3.534c0 1.107.46 1.544 1.604 1.544h2.908c1.144.008 1.605-.437 1.605-1.537z" style="stroke-width:.996294;fill:#1a1a1a;fill-opacity:1"/></g><g filter="url(#e)" opacity=".7" style="stroke-width:.996294;fill:#1a1a1a;fill-opacity:1" transform="matrix(1.00745 0 0 1 -.724 .038)"><path fill="#000" fill-opacity=".432" d="M18.886 18.163v-3.54c0-1.1-.461-1.545-1.605-1.545h-2.908c-1.144 0-1.604.445-1.604 1.544v3.534c0 1.107.46 1.544 1.604 1.544h2.908c1.144.008 1.605-.437 1.605-1.537z" style="stroke-width:.996294;fill:#1a1a1a;fill-opacity:1"/></g></g><path fill="url(#f)" d="M11.352 9.935v-3.54c0-1.1-.46-1.545-1.605-1.545H6.84c-1.144 0-1.605.445-1.605 1.544v3.533c0 1.108.46 1.545 1.605 1.545h2.907c1.144.008 1.605-.437 1.605-1.537Z"/><path fill="#fff" d="M9.733 8.356H6.854c-.098 0-.18-.089-.18-.195 0-.107.082-.195.18-.195h2.879c.098 0 .18.088.18.195 0 .106-.082.195-.18.195Z"/><path fill="#fff" d="M8.293 9.916c-.098 0-.18-.089-.18-.195V6.6c0-.107.082-.195.18-.195.099 0 .18.088.18.195v3.12c0 .106-.081.195-.18.195Z"/><path fill="url(#g)" d="M11.352 17.79v-3.542c0-1.1-.46-1.544-1.605-1.544H6.84c-1.144 0-1.605.445-1.605 1.544v3.534c0 1.107.46 1.544 1.605 1.544h2.907c1.144.008 1.605-.437 1.605-1.537Z"/><path fill="#fff" d="M9.733 16.21H6.854c-.098 0-.18-.088-.18-.195 0-.107.082-.195.18-.195h2.879c.098 0 .18.088.18.195 0 .107-.082.195-.18.195Z"/><path fill="url(#h)" d="M18.74 9.935v-3.54c0-1.1-.46-1.545-1.604-1.545h-2.908c-1.144 0-1.604.445-1.604 1.544v3.533c0 1.108.46 1.545 1.604 1.545h2.908c1.144.008 1.605-.437 1.605-1.537Z"/><path fill="#fff" d="m16.94 7.12-2.25 2.425a.19.19 0 0 1-.281 0 .229.229 0 0 1-.001-.305l2.249-2.425a.19.19 0 0 1 .282 0 .229.229 0 0 1 0 .305Z"/><path stroke="#fff" stroke-linecap="round" stroke-linejoin="round" stroke-width=".277" d="M14.7 7.619c.244 0 .442-.213.442-.476s-.198-.476-.441-.476c-.244 0-.441.213-.441.476s.197.476.44.476ZM16.663 9.655c.244 0 .441-.213.441-.476s-.197-.476-.44-.476c-.244 0-.442.213-.442.476s.198.476.441.476Z"/><path fill="url(#i)" d="M18.74 17.79v-3.542c0-1.1-.46-1.544-1.604-1.544h-2.908c-1.144 0-1.604.445-1.604 1.544v3.534c0 1.107.46 1.544 1.604 1.544h2.908c1.144.008 1.604-.437 1.604-1.537Z"/><path fill="#fff" d="M17.121 16.771h-2.878c-.099 0-.18-.088-.18-.195 0-.107.081-.195.18-.195h2.878c.099 0 .18.088.18.195 0 .107-.081.195-.18.195ZM17.121 15.65h-2.878c-.099 0-.18-.09-.18-.196 0-.107.081-.195.18-.195h2.878c.099 0 .18.088.18.195 0 .107-.081.195-.18.195Z"/><defs><linearGradient id="a" x1="12" x2="12" y1="1" y2="12" gradientUnits="userSpaceOnUse"><stop stop-color="#fff"/><stop offset="1" stop-color="#DBDBDA"/></linearGradient><linearGradient id="f" x1="8.42" x2="8.42" y1="4.983" y2="11.203" gradientUnits="userSpaceOnUse"><stop stop-color="#959491"/><stop offset="1" stop-color="#7F7D78"/></linearGradient><linearGradient id="g" x1="8.42" x2="8.42" y1="12.837" y2="19.057" gradientUnits="userSpaceOnUse"><stop stop-color="#959491"/><stop offset="1" stop-color="#7F7D78"/></linearGradient><linearGradient id="h" x1="15.809" x2="15.809" y1="4.983" y2="11.203" gradientUnits="userSpaceOnUse"><stop stop-color="#959491"/><stop offset="1" stop-color="#7F7D78"/></linearGradient><linearGradient id="i" x1="15.809" x2="15.809" y1="12.837" y2="19.057" gradientUnits="userSpaceOnUse"><stop stop-color="#F77400"/><stop offset="1" stop-color="#C05A00"/></linearGradient><filter id="b" width="6.189" height="6.694" x="5.344" y="5.188" color-interpolation-filters="sRGB" filterUnits="userSpaceOnUse"><feFlood flood-opacity="0" result="BackgroundImageFix"/><feBlend in="SourceGraphic" in2="BackgroundImageFix" result="shape"/><feGaussianBlur result="effect1_foregroundBlur_8_122" stdDeviation=".018"/></filter><filter id="c" width="6.189" height="6.694" x="5.344" y="13.042" color-interpolation-filters="sRGB" filterUnits="userSpaceOnUse"><feFlood flood-opacity="0" result="BackgroundImageFix"/><feBlend in="SourceGraphic" in2="BackgroundImageFix" result="shape"/><feGaussianBlur result="effect1_foregroundBlur_8_122" stdDeviation=".018"/></filter><filter id="d" width="6.189" height="6.694" x="12.732" y="5.188" color-interpolation-filters="sRGB" filterUnits="userSpaceOnUse"><feFlood flood-opacity="0" result="BackgroundImageFix"/><feBlend in="SourceGraphic" in2="BackgroundImageFix" result="shape"/><feGaussianBlur result="effect1_foregroundBlur_8_122" stdDeviation=".018"/></filter><filter id="e" width="6.189" height="6.694" x="12.732" y="13.042" color-interpolation-filters="sRGB" filterUnits="userSpaceOnUse"><feFlood flood-opacity="0" result="BackgroundImageFix"/><feBlend in="SourceGraphic" in2="BackgroundImageFix" result="shape"/><feGaussianBlur result="effect1_foregroundBlur_8_122" stdDeviation=".018"/></filter></defs></svg>
